X:286
T:Piper's Despair, The
T:Cr\'a Cro\'i an Ph\'iobaire
R:reel
H:Also played with single parts
D:Matt Molloy & Sean Keane: Contentment is Wealth
D:Milestone at the Garden (Denis Murphy)
Z:id:hn-reel-286
M:C|
K:Edor
EFGA BAFA | (3Bcd AB dBAF | D2 (3FED ADFA | (3Bcd AB dBAF |
EFGA BAFA | (3Bcd AB dBAF | DEFA dfaf |1 gfed Be~e2 :|2 gfed Beed ||
|: e2 (3gfe begf | efga bfaf | df~f2 af~f2 | df~f2 afdf |
e2 (3gfe begf | efga bfaf | ~d3f abaf |1 gfed Beed :|2 gfed Be~e2 ||
P:variations
|: EFGA BAFA | Bdce dBAF | D2FD A,DFA | (3Bcd ce dBAF |
EFGA BAFA | (3Bcd ce dBAF | DEFA defa |1 gfed Be~e2 :|2 gfed Beed ||
e3g bagf | efga bgaf | ~d3f affe | defd edBd |
efge begf | efga bgaf | ~d3f abaf | gfed Beed ||
~e3g begf | efga bgaf | dcdb affe | dfaf gfed |
efga bgef | gebe gfec | dcdf abaf | gfed Be~e2 ||

